X:5
T: Paddy Breen's
T: Port Ph\'aid\'i U\'i Bhraoin
S: B.Breathnach:"Ceol Rince na hEireann" III/1
Z: B.Black
L: 1/8
M: 6/8
R: jig
K: G
DE/F/|: G2B G2B|G2B ded|BAB E2D|GAG FED|
G2B G2B|G2B ded|BAB E2D|FAF G2 z :|
GBd g3|f2e e2d|e2d e2f|e2d BAB|
GBd g2g f2e e2d|BAB E2D|FAF G2 z :|
